X:1
T:Puttin' On the Style
M:4/4
L:1/4
K:D
 D D D E| F A3| A A A F| E4| E E E F| G G2 A| B B A G| F3 A| D D D E|\
 F A2 A/2A/2| A A A F| E4| A A A A| c2 A2| F/2F/2 F2 E| D4| D/2D/2 D2 E|\
 F A A2| A/2A/2 A2 F| E4| E E E F| G G2 A| B/2 B3/2 A G| F3 A| D D D E|\
 F A2 A| A/2 A3/2 A F| E3 A| A A A A| c2 A2| F/2F/2 F2 E| D4|
